src/assets/icons/file-vcf.svg

<?xml version="1.0" encoding="UTF-8"?>
<svg width="101px" height="86px" viewBox="0 0 101 86" version="1.1" xmlns="http://www.w3.org/2000/svg" xmlns:xlink="http://www.w3.org/1999/xlink">
    <!-- Generator: Sketch 49.3 (51167) - http://www.bohemiancoding.com/sketch -->
    <title>Group 5</title>
    <desc>Created with Sketch.</desc>
    <defs/>
    <g id="import-contacts---201805" stroke="none" stroke-width="1" fill="none" fill-rule="evenodd">
        <g id="50_0-import-contacts-modal" transform="translate(-589.000000, -296.000000)">
            <g id="modal" transform="translate(368.000000, 48.000000)">
                <g id="components/card/account-1" transform="translate(80.000000, 232.000000)">
                    <g id="Group-5" transform="translate(141.000000, 16.000000)">
                        <path d="M80.1602285,77.9202772 C80.5419637,72.2288691 80.2425518,66.5316818 80.3072246,60.8287154 C80.3431124,57.4612388 80.3072246,54.0937621 80.3072246,50.7262855 C80.3072246,47.3588089 80.3610564,43.9913322 80.3072246,40.6178743 C80.2414302,34.8219864 80.5524582,29.0260986 80.1576919,23.2302107 C80.1727474,22.1139974 79.6297489,21.0639012 78.7102152,20.4309584 C78.3704895,20.2357499 78.0189014,20.0619535 77.657505,19.9105846 C77.0040684,19.6125725 76.3037994,19.4304216 75.5879722,19.3722668 C71.1079722,18.92965 55.3412433,18.9535752 49.5094676,19.0791827 C45.3163884,19.0125014 32.1435564,18.9483923 21.5778705,19.080842 C22.8836478,14.2808514 24.1980263,9.65075564 25.7013538,4.80209854 C26.1182811,3.47719885 26.6260182,1.92893934 28.1228959,0.918180714 C29.6197736,-0.0925779133 31.1160288,0.0544578874 32.5639903,0.312399581 C39.5476313,1.56442993 65.8675998,8.71592115 72.0172748,10.4689908 C77.6827053,11.8569999 92.9180048,15.9145169 97.1306859,17.501532 C97.8070529,17.7429702 98.4362996,18.1001529 98.9903238,18.557128 C99.30022,18.7968731 99.5948376,19.0557429 99.8724555,19.3322252 C100.596817,20.1815878 100.849515,21.3364377 100.546076,22.4107204 C99.4272948,28.1112886 97.6267862,33.6291884 96.190251,39.2446146 C95.369132,42.5170571 94.4455687,45.7558574 93.5740016,49.0085901 C92.7024345,52.2613227 91.8655316,55.5233436 90.9593004,58.766788 C89.3941152,64.3539349 88.1944515,70.0328306 86.297276,75.5186362 C86.0229208,76.600712 85.2266529,77.4744923 84.1746563,77.8478813 C83.7967577,77.9444941 83.4132172,78.0175126 83.0262553,78.0665142 C82.3177361,78.1822897 81.59471,78.1769993 80.8879637,78.0508682 C80.6704586,78.0152923 80.4270528,77.9715275 80.1602285,77.9202772 Z" id="Combined-Shape" fill="#D6D8DA" fill-rule="nonzero"/>
                        <path d="M77.3072246,63.8287154 C77.3431124,60.4612388 77.3072246,57.0937621 77.3072246,53.7262855 C77.3072246,50.3588089 77.3610564,46.9913322 77.3072246,43.6178743 C77.2414302,37.8219864 77.5524582,32.0260986 77.1576919,26.2302107 C77.1727474,25.1139974 76.6297489,24.0639012 75.7102152,23.4309584 C75.3704895,23.2357499 75.0189014,23.0619535 74.657505,22.9105846 C74.0040684,22.6125725 73.3037994,22.4304216 72.5879722,22.3722668 C68.1079722,21.92965 52.3412433,21.9535752 46.5094676,22.0791827 C40.1154489,21.9775005 12.8406825,21.8817995 5.77077598,22.4799304 C4.30535542,22.6055378 2.82199093,22.8507715 1.63769187,24.2145098 C0.453392803,25.5782481 0.363673176,27.205164 0.303860092,28.5928276 C0.0646077559,34.7475939 0.0107759802,40.5195565 0.0107759802,46.6623603 C0.0107759802,48.5703977 0.0107759802,50.885164 0.0107759802,53.3793696 C0.0107759802,53.4930145 0.0107759802,53.6066593 0.0107759802,53.7262855 C0.0107759802,53.8459117 0.0107759802,53.9535752 0.0107759802,54.0732014 C0.0107759802,56.5614257 0.0107759802,58.8582481 0.0107759802,60.7842294 C-0.0310931787,66.9330145 0.0466638307,72.7049771 0.285916167,78.8477808 C0.345729251,80.2414257 0.399561027,81.838435 1.61974794,83.2260986 C2.83993486,84.6137621 4.28741149,84.8350705 5.75283205,84.960678 C6.8533928,85.0503977 8.44442084,85.1281547 10.3704021,85.1879677 C10.3105891,83.0765659 10.2627386,86.1689023 10.3105891,82.3169397 C10.3644208,77.7771266 17.44629,77.9685285 17.3864769,82.5203042 C17.3446078,86.3423603 17.3864769,83.2380612 17.44629,85.3434818 C20.8137666,85.3913322 24.4922713,85.4152575 28.0990003,85.4272201 C28.0391872,83.2619864 27.9853554,86.318435 28.0332059,82.3169397 C28.0870377,77.7771266 35.1689068,77.9685285 35.1090937,82.5203042 C35.0612433,86.396192 35.1090937,83.3098369 35.1689068,85.4332014 C38.644047,85.4332014 41.7483461,85.4332014 44.0032993,85.3913322 C43.9434863,83.2320799 43.8896545,86.2945098 43.937505,82.3169397 C43.9913367,77.7771266 51.0732059,77.9685285 51.0133928,82.5203042 C50.9655423,86.3902107 51.0133928,83.2978743 51.0732059,85.4212388 C53.7109629,85.4212388 56.8332059,85.4212388 59.9075984,85.4212388 C59.8477853,83.2560051 59.7939536,86.3064724 59.8477853,82.3109584 C59.9016171,77.7711453 66.977505,77.9625472 66.9236732,82.5143229 C66.8758227,86.3303977 66.9236732,83.2201173 66.977505,85.3195565 C69.3700283,85.2657248 71.3737666,85.1819864 72.5700283,85.0623603 C73.2853559,85.0012741 73.9851324,84.8192513 74.639561,84.5240425 C75.000664,84.3765575 75.352246,84.2067594 75.6922713,84.0156313 C76.611805,83.3826885 77.1548034,82.3325923 77.1397479,81.216379 C77.5524582,75.4264724 77.2414302,69.6305846 77.3072246,63.8287154 Z" id="Shape" fill="#D6D8DA" fill-rule="nonzero"/>
                        <path d="M28,70.296 C28,70.1279992 28.0314997,69.9716674 28.0945,69.827 C28.1575003,69.6823326 28.2438328,69.5563339 28.3535,69.449 C28.4631672,69.3416661 28.5926659,69.2565003 28.742,69.1935 C28.8913341,69.1304997 29.0546658,69.099 29.232,69.099 C29.4046675,69.099 29.5656659,69.1304997 29.715,69.1935 C29.8643341,69.2565003 29.9949994,69.3416661 30.107,69.449 C30.2190006,69.5563339 30.3064997,69.6823326 30.3695,69.827 C30.4325003,69.9716674 30.464,70.1279992 30.464,70.296 C30.464,70.4640008 30.4325003,70.6214993 30.3695,70.7685 C30.3064997,70.9155007 30.2190006,71.0426661 30.107,71.15 C29.9949994,71.2573339 29.8643341,71.341333 29.715,71.402 C29.5656659,71.462667 29.4046675,71.493 29.232,71.493 C29.0546658,71.493 28.8913341,71.462667 28.742,71.402 C28.5926659,71.341333 28.4631672,71.2573339 28.3535,71.15 C28.2438328,71.0426661 28.1575003,70.9155007 28.0945,70.7685 C28.0314997,70.6214993 28,70.4640008 28,70.296 Z M34.762,71.395 L32.788,71.395 L29.974,64.136 L31.78,64.136 C31.9340008,64.136 32.0634995,64.1721663 32.1685,64.2445 C32.2735005,64.3168337 32.3446665,64.4066661 32.382,64.514 L33.39,67.769 C33.4693337,68.0350013 33.5451663,68.2939987 33.6175,68.546 C33.6898337,68.7980013 33.7516664,69.0499987 33.803,69.302 C33.8543336,69.0499987 33.917333,68.7980013 33.992,68.546 C34.066667,68.2939987 34.1459996,68.0350013 34.23,67.769 L35.28,64.514 C35.3173335,64.4066661 35.3873328,64.3168337 35.49,64.2445 C35.5926672,64.1721663 35.7139993,64.136 35.854,64.136 L37.576,64.136 L34.762,71.395 Z M43.442,65.858 C43.3766663,65.9373337 43.313667,66.0003331 43.253,66.047 C43.192333,66.0936669 43.1060006,66.117 42.994,66.117 C42.8866661,66.117 42.7898338,66.0913336 42.7035,66.04 C42.6171662,65.9886664 42.5203339,65.9315003 42.413,65.8685 C42.3056661,65.8054997 42.1796674,65.7483336 42.035,65.697 C41.8903326,65.6456664 41.7106677,65.62 41.496,65.62 C41.2299987,65.62 41.0001676,65.6689995 40.8065,65.767 C40.6128324,65.8650005 40.4530006,66.0049991 40.327,66.187 C40.2009994,66.3690009 40.107667,66.591832 40.047,66.8555 C39.986333,67.119168 39.956,67.416665 39.956,67.748 C39.956,68.4433368 40.0901653,68.9776648 40.3585,69.351 C40.6268347,69.7243352 40.9966643,69.911 41.468,69.911 C41.7200013,69.911 41.9194993,69.8795003 42.0665,69.8165 C42.2135007,69.7534997 42.3383328,69.6835004 42.441,69.6065 C42.5436672,69.5294996 42.6381662,69.4583337 42.7245,69.393 C42.8108338,69.3276663 42.9193327,69.295 43.05,69.295 C43.2226675,69.295 43.3533329,69.3579994 43.442,69.484 L44.072,70.261 C43.8479989,70.5176679 43.6123346,70.7264992 43.365,70.8875 C43.1176654,71.0485008 42.8645013,71.1744995 42.6055,71.2655 C42.3464987,71.3565005 42.0863346,71.4194998 41.825,71.4545 C41.5636654,71.4895002 41.3093346,71.507 41.062,71.507 C40.6186644,71.507 40.1951687,71.4230008 39.7915,71.255 C39.3878313,71.0869992 39.0331682,70.8431683 38.7275,70.5235 C38.4218318,70.2038317 38.1791676,69.810669 37.9995,69.344 C37.8198324,68.877331 37.73,68.3453363 37.73,67.748 C37.73,67.2253307 37.8081659,66.7365023 37.9645,66.2815 C38.1208341,65.8264977 38.3518318,65.4321683 38.6575,65.0985 C38.9631682,64.7648317 39.3411644,64.5023343 39.7915,64.311 C40.2418356,64.1196657 40.7633304,64.024 41.356,64.024 C41.9253362,64.024 42.4246645,64.1149991 42.854,64.297 C43.2833355,64.4790009 43.6706649,64.7449982 44.016,65.095 L43.442,65.858 Z M45.332,71.395 L45.332,65.627 L44.856,65.529 C44.6926658,65.4916665 44.5608338,65.4333337 44.4605,65.354 C44.3601662,65.2746663 44.31,65.1580008 44.31,65.004 L44.31,64.15 L45.332,64.15 L45.332,63.737 C45.332,63.3216646 45.3984993,62.9460017 45.5315,62.61 C45.6645007,62.2739983 45.8558321,61.9870012 46.1055,61.749 C46.3551679,61.5109988 46.6596649,61.3266673 47.019,61.196 C47.3783351,61.0653327 47.7866644,61 48.244,61 C48.4213342,61 48.5858326,61.0104999 48.7375,61.0315 C48.8891674,61.0525001 49.0466658,61.0863331 49.21,61.133 L49.168,62.19 C49.1633333,62.264667 49.1435002,62.3264998 49.1085,62.3755 C49.0734998,62.4245002 49.0303336,62.4641665 48.979,62.4945 C48.9276664,62.5248335 48.8705003,62.5469999 48.8075,62.561 C48.7444997,62.5750001 48.682667,62.582 48.622,62.582 C48.4306657,62.582 48.2603341,62.6006665 48.111,62.638 C47.9616659,62.6753335 47.8368338,62.7418329 47.7365,62.8375 C47.6361662,62.9331671 47.5603336,63.0591659 47.509,63.2155 C47.4576664,63.3718341 47.432,63.5689988 47.432,63.807 L47.432,64.15 L49.14,64.15 L49.14,65.634 L47.502,65.634 L47.502,71.395 L45.332,71.395 Z" id=".vcf" fill="#95999D"/>
                        <g id="Group" opacity="0.56" transform="translate(5.981308, 29.177570)" fill="#95999D" fill-rule="nonzero">
                            <ellipse id="Oval" cx="12.691215" cy="7.66803738" rx="6.32224299" ry="7.08785047"/>
                            <path d="M0.046728972,22.633271 C0.046728972,21.0542056 3.18691589,16.328972 6.36897196,16.328972 C9.55102804,16.328972 7.97196262,17.9080374 12.691215,17.9080374 C17.4104673,17.9080374 15.8493458,16.328972 19.0134579,16.328972 C22.1775701,16.328972 25.317757,21.0542056 25.317757,22.633271 C25.317757,24.2123364 25.317757,25.7794393 23.7386916,25.7794393 L1.60785047,25.7794393 C0.046728972,25.7794393 0.046728972,24.2063551 0.046728972,22.633271 Z" id="Shape"/>
                        </g>
                        <g id="Group" opacity="0.56" transform="translate(37.280374, 28.579439)" fill="#95999D" fill-rule="nonzero">
                            <path d="M17.8302804,5.20373832 C11.1371963,4.95850467 9.74953271,5.34728972 3.02654206,5.35925234 C0.257196262,5.35925234 0.317009346,1.07663551 3.09233645,1.07065421 C9.8153271,1.07065421 11.1970093,0.669906542 17.8900935,0.915140187 C20.6534579,1.01682243 20.6056075,5.30542056 17.8302804,5.20373832 Z" id="Shape"/>
                            <path d="M31.1386916,15.7966355 C24.4456075,15.5454206 9.74953271,15.9342056 3.02654206,15.9461682 C0.257196262,15.9461682 0.317009346,11.6695327 3.09233645,11.6635514 C9.8153271,11.6635514 24.5114019,11.2568224 31.204486,11.5080374 C33.9618692,11.6097196 33.92,15.8983178 31.1386916,15.7966355 Z" id="Shape"/>
                            <path d="M31.1386916,26.3835514 C24.4456075,26.1383178 9.74953271,26.5271028 3.02654206,26.5390654 C0.257196262,26.5390654 0.317009346,22.2624299 3.09233645,22.2564486 C9.8153271,22.2564486 24.5114019,21.8497196 31.204486,22.1009346 C33.9618692,22.2026168 33.92,26.491215 31.1386916,26.3835514 Z" id="Shape"/>
                        </g>
                    </g>
                </g>
            </g>
        </g>
    </g>
</svg>

<svg width="101" height="86" xmlns="http://www.w3.org/2000/svg">
  <g fill="none" fill-rule="evenodd">
    <path d="M80.16 77.92c.382-5.691.083-11.388.147-17.091.036-3.368 0-6.735 0-10.103 0-3.367.054-6.735 0-10.108-.066-5.796.245-11.592-.15-17.388a3.344 3.344 0 0 0-1.447-2.799 9.409 9.409 0 0 0-1.052-.52 6.197 6.197 0 0 0-2.07-.539c-4.48-.442-20.247-.418-26.079-.293-4.193-.066-17.365-.13-27.931.002 1.306-4.8 2.62-9.43 4.123-14.279.417-1.325.925-2.873 2.422-3.884 1.497-1.01 2.993-.864 4.441-.606 6.984 1.252 33.304 8.404 39.453 10.157 5.666 1.388 20.901 5.446 25.114 7.033a6.196 6.196 0 0 1 1.86 1.055c.31.24.604.499.881.775.725.85.978 2.004.674 3.079-1.119 5.7-2.92 11.218-4.356 16.834-.82 3.272-1.744 6.51-2.616 9.764-.872 3.252-1.708 6.514-2.615 9.758-1.565 5.587-2.765 11.266-4.662 16.752a3.344 3.344 0 0 1-2.122 2.329c-.378.096-.762.17-1.149.219a6.346 6.346 0 0 1-2.138-.016c-.218-.036-.46-.08-.728-.13z" fill="#D6D8DA" fill-rule="nonzero"/>
    <path d="M77.307 63.829c.036-3.368 0-6.735 0-10.103 0-3.367.054-6.735 0-10.108-.066-5.796.245-11.592-.15-17.388a3.344 3.344 0 0 0-1.447-2.799 9.409 9.409 0 0 0-1.052-.52 6.197 6.197 0 0 0-2.07-.539c-4.48-.442-20.247-.418-26.079-.293-6.394-.101-33.668-.197-40.738.4-1.466.127-2.949.372-4.133 1.736C.453 25.578.364 27.205.304 28.593.064 34.748.01 40.52.01 46.663v14.121c-.042 6.149.036 11.921.275 18.064.06 1.393.114 2.99 1.334 4.378s2.667 1.61 4.133 1.735c1.1.09 2.691.167 4.617.227-.06-2.111-.107.98-.06-2.871.054-4.54 7.136-4.348 7.076.203-.041 3.822 0 .718.06 2.823 3.368.048 7.046.072 10.653.084-.06-2.165-.114.891-.066-3.11.054-4.54 7.136-4.348 7.076.203-.048 3.876 0 .79.06 2.913 3.475 0 6.58 0 8.834-.042-.06-2.159-.113.904-.065-3.074.053-4.54 7.135-4.348 7.075.203-.047 3.87 0 .778.06 2.901h8.835c-.06-2.165-.114.885-.06-3.11.054-4.54 7.13-4.348 7.076.203-.048 3.816 0 .706.054 2.806 2.392-.054 4.396-.138 5.592-.258a6.346 6.346 0 0 0 2.07-.538 9.409 9.409 0 0 0 1.052-.508 3.344 3.344 0 0 0 1.448-2.8c.412-5.79.101-11.585.167-17.387z" fill="#D6D8DA" fill-rule="nonzero"/>
    <path d="M28 70.296a1.162 1.162 0 0 1 .354-.847 1.236 1.236 0 0 1 .878-.35c.173 0 .334.031.483.094.15.064.28.149.392.256a1.159 1.159 0 0 1 .357.847 1.187 1.187 0 0 1-.357.854 1.229 1.229 0 0 1-.392.252c-.15.06-.31.091-.483.091-.177 0-.34-.03-.49-.091A1.175 1.175 0 0 1 28 70.296zm6.762 1.099h-1.974l-2.814-7.259h1.806c.154 0 .283.036.389.109a.54.54 0 0 1 .213.269l1.008 3.255c.08.266.155.525.227.777.073.252.135.504.186.756.051-.252.114-.504.189-.756s.154-.511.238-.777l1.05-3.255a.546.546 0 0 1 .21-.27.616.616 0 0 1 .364-.108h1.722l-2.814 7.259zm8.68-5.537a1.2 1.2 0 0 1-.189.189.417.417 0 0 1-.259.07.558.558 0 0 1-.29-.077 60.094 60.094 0 0 0-.291-.172 2.204 2.204 0 0 0-.378-.171 1.627 1.627 0 0 0-.539-.077 1.51 1.51 0 0 0-.69.147 1.277 1.277 0 0 0-.479.42 1.92 1.92 0 0 0-.28.669c-.06.263-.091.56-.091.892 0 .695.134 1.23.402 1.603.269.373.639.56 1.11.56.252 0 .451-.031.598-.094.148-.064.272-.133.375-.21l.283-.214a.524.524 0 0 1 .326-.098c.173 0 .303.063.392.189l.63.777a3.428 3.428 0 0 1-1.467 1.005 3.92 3.92 0 0 1-.78.188 5.747 5.747 0 0 1-.763.053c-.443 0-.867-.084-1.27-.252a3.113 3.113 0 0 1-1.065-.731 3.503 3.503 0 0 1-.727-1.18c-.18-.467-.27-.999-.27-1.596 0-.523.078-1.011.235-1.467a3.33 3.33 0 0 1 .692-1.183 3.222 3.222 0 0 1 1.135-.787c.45-.191.971-.287 1.564-.287.57 0 1.069.091 1.498.273.43.182.817.448 1.162.798l-.574.763zm1.89 5.537v-5.768l-.476-.098a.983.983 0 0 1-.395-.175c-.1-.08-.151-.196-.151-.35v-.854h1.022v-.413c0-.415.066-.791.2-1.127.133-.336.324-.623.574-.861.25-.238.554-.422.913-.553A3.57 3.57 0 0 1 48.244 61a3.44 3.44 0 0 1 .966.133l-.042 1.057a.35.35 0 0 1-.06.186.42.42 0 0 1-.129.119.583.583 0 0 1-.172.066.853.853 0 0 1-.185.021c-.191 0-.362.019-.511.056a.819.819 0 0 0-.374.2.898.898 0 0 0-.228.377 1.925 1.925 0 0 0-.077.592v.343h1.708v1.484h-1.638v5.761h-2.17z" fill="#95999D"/>
    <g opacity=".56" transform="translate(5.981 29.178)" fill="#95999D" fill-rule="nonzero">
      <ellipse cx="12.691" cy="7.668" rx="6.322" ry="7.088"/>
      <path d="M.047 22.633c0-1.579 3.14-6.304 6.322-6.304s1.603 1.579 6.322 1.579c4.72 0 3.158-1.579 6.322-1.579 3.165 0 6.305 4.725 6.305 6.304 0 1.58 0 3.146-1.58 3.146H1.609c-1.561 0-1.561-1.573-1.561-3.146z"/>
    </g>
    <g opacity=".56" fill="#95999D" fill-rule="nonzero">
      <path d="M55.11 33.783c-6.692-.245-8.08.144-14.803.156-2.77 0-2.71-4.283.066-4.289 6.723 0 8.104-.4 14.797-.155 2.764.101 2.716 4.39-.06 4.288zM68.42 44.376c-6.694-.251-21.39.138-28.113.15-2.77 0-2.71-4.277.066-4.283 6.723 0 21.419-.407 28.112-.156 2.757.102 2.715 4.39-.066 4.29zM68.42 54.963c-6.694-.245-21.39.144-28.113.156-2.77 0-2.71-4.277.066-4.283 6.723 0 21.419-.407 28.112-.156 2.757.102 2.715 4.39-.066 4.283z"/>
    </g>
  </g>
</svg>
